package/converter/svg/light/address-card.svg

<svg xmlns="http://www.w3.org/2000/svg" viewBox="0 0 576 512"><!-- Font Awesome Pro 6.0.0-alpha2 by @fontawesome - https://fontawesome.com License - https://fontawesome.com/license (Commercial License) --><path d="M480 288H352C343.164 288 336 295.164 336 304S343.164 320 352 320H480C488.836 320 496 312.836 496 304S488.836 288 480 288ZM192 256C227.346 256 256 227.346 256 192S227.346 128 192 128S128 156.654 128 192S156.654 256 192 256ZM192 160C209.645 160 224 174.355 224 192S209.645 224 192 224S160 209.645 160 192S174.355 160 192 160ZM224 288H160C115.816 288 80 323.816 80 368C80 376.836 87.164 384 96 384S112 376.836 112 368C112 341.49 133.49 320 160 320H224C250.51 320 272 341.49 272 368C272 376.836 279.164 384 288 384S304 376.836 304 368C304 323.816 268.184 288 224 288ZM512 32H64C28.654 32 0 60.652 0 96V416C0 451.346 28.654 480 64 480H512C547.348 480 576 451.346 576 416V96C576 60.652 547.348 32 512 32ZM544 416C544 433.645 529.645 448 512 448H64C46.355 448 32 433.645 32 416V96C32 78.355 46.355 64 64 64H512C529.645 64 544 78.355 544 96V416ZM480 224H352C343.164 224 336 231.164 336 240S343.164 256 352 256H480C488.836 256 496 248.836 496 240S488.836 224 480 224ZM480 160H352C343.164 160 336 167.164 336 176S343.164 192 352 192H480C488.836 192 496 184.836 496 176S488.836 160 480 160Z"/></svg>

<svg xmlns="http://www.w3.org/2000/svg" viewBox="0 0 576 512"><!--! Font Awesome Pro 6.6.0 by @fontawesome - https://fontawesome.com License - https://fontawesome.com/license (Commercial License) Copyright 2024 Fonticons, Inc. --><path d="M512 64c17.7 0 32 14.3 32 32l0 320c0 17.7-14.3 32-32 32L64 448c-17.7 0-32-14.3-32-32L32 96c0-17.7 14.3-32 32-32l448 0zM64 32C28.7 32 0 60.7 0 96L0 416c0 35.3 28.7 64 64 64l448 0c35.3 0 64-28.7 64-64l0-320c0-35.3-28.7-64-64-64L64 32zm96 160a32 32 0 1 1 64 0 32 32 0 1 1 -64 0zm96 0a64 64 0 1 0 -128 0 64 64 0 1 0 128 0zM112 368c0-26.5 21.5-48 48-48l64 0c26.5 0 48 21.5 48 48c0 8.8 7.2 16 16 16s16-7.2 16-16c0-44.2-35.8-80-80-80l-64 0c-44.2 0-80 35.8-80 80c0 8.8 7.2 16 16 16s16-7.2 16-16zM352 160c-8.8 0-16 7.2-16 16s7.2 16 16 16l128 0c8.8 0 16-7.2 16-16s-7.2-16-16-16l-128 0zm0 64c-8.8 0-16 7.2-16 16s7.2 16 16 16l128 0c8.8 0 16-7.2 16-16s-7.2-16-16-16l-128 0zm0 64c-8.8 0-16 7.2-16 16s7.2 16 16 16l128 0c8.8 0 16-7.2 16-16s-7.2-16-16-16l-128 0z"/></svg>
